Newaita-dark/apps/24/com.github.bartzaalberg.lottery.svg

<svg height="24" viewBox="0 0 24 24" width="24" xmlns="http://www.w3.org/2000/svg" xmlns:xlink="http://www.w3.org/1999/xlink"><linearGradient id="a"><stop offset="0" stop-opacity=".313726"/><stop offset=".222222" stop-opacity=".27451"/><stop offset="1" stop-opacity="0"/></linearGradient><radialGradient id="b" cx="450.908936" cy="189.579361" gradientTransform="matrix(.00000013 -.0585994 -.105479 -.00000008 33.392364 47.696497)" gradientUnits="userSpaceOnUse" r="21.166656" xlink:href="#a"/><radialGradient id="c" cx="450.908936" cy="189.579361" gradientTransform="matrix(-.00000013 .0585994 .105479 .00000008 -9.577589 -5.645612)" gradientUnits="userSpaceOnUse" r="21.166656" xlink:href="#a"/><radialGradient id="d" cx="450.908936" cy="189.579361" gradientTransform="matrix(-.00000013 -.0585994 .105479 -.00000008 -9.577589 47.696497)" gradientUnits="userSpaceOnUse" r="21.166656" xlink:href="#a"/><radialGradient id="e" cx="450.908936" cy="189.579361" gradientTransform="matrix(.00000013 .0585994 -.105479 .00000008 33.392362 -5.645612)" gradientUnits="userSpaceOnUse" r="21.166656" xlink:href="#a"/><linearGradient id="f" gradientTransform="matrix(.01002 0 0 .0468795 9.34904 10.079088)" gradientUnits="userSpaceOnUse" x1="255.323059" x2="255.323044" y1="233.5" y2="254.666656"><stop offset="0" stop-opacity=".27451"/><stop offset="1" stop-opacity="0"/></linearGradient><linearGradient id="g" gradientUnits="userSpaceOnUse" x1="11.907393" x2="11.907393" y1="2.17207774998" y2="21.02545025"><stop offset="0" stop-color="#ef5350"/><stop offset="1" stop-color="#f44336"/></linearGradient><linearGradient id="h" gradientUnits="userSpaceOnUse" x1="11.90736" x2="11.90736" y1="21.02539814717" y2="2.17207757661"><stop offset="0" stop-color="#bdbdbd"/><stop offset="1" stop-color="#e0e0e0"/></linearGradient><path d="m13.644531 21.027344h1.984375v-.996094h-1.984375zm0 0" fill="url(#b)"/><path d="m10.171875 21.027344h-1.984375v.992187h1.984375zm0 0" fill="url(#c)"/><path d="m10.171875 21.027344h-1.984375v-.996094h1.984375zm0 0" fill="url(#d)"/><path d="m13.644531 21.027344h1.984375v.992187h-1.984375zm0 0" fill="url(#e)"/><path d="m10.171875 20.777344h3.472656v1.242187h-3.472656zm0 0" fill="url(#f)"/><path d="m11.90625 2.171875c5.207031 0 9.429688 4.21875 9.429688 9.425781 0 5.207032-4.222657 9.429688-9.429688 9.429688-5.203125 0-9.425781-4.222656-9.425781-9.429688 0-5.207031 4.222656-9.425781 9.425781-9.425781zm0 0" fill="url(#g)"/><path d="m11.90625 21.027344c-5.222656 0-9.425781-4.207032-9.425781-9.429688 0-.03125 0-.058594 0-.089844.050781 5.179688 4.234375 9.332032 9.425781 9.332032s9.378906-4.152344 9.425781-9.332032c0 .03125.003907.058594.003907.089844 0 5.222656-4.207032 9.429688-9.429688 9.429688zm0 0" fill-opacity=".196078"/><path d="m11.90625 2.171875c-5.222656 0-9.425781 4.203125-9.425781 9.425781v.09375c.050781-5.179687 4.234375-9.335937 9.425781-9.335937s9.378906 4.15625 9.425781 9.335937c0-.03125.003907-.0625.003907-.09375 0-5.222656-4.207032-9.425781-9.429688-9.425781zm0 0" fill="#fff" fill-opacity=".392157"/><path d="m11.90625 2.101562c-5.257812 0-9.496094 4.238282-9.496094 9.496094 0 5.261719 4.238282 9.5 9.496094 9.5 5.261719 0 9.5-4.238281 9.5-9.5 0-5.257812-4.238281-9.496094-9.5-9.496094zm0 .140626c5.1875 0 9.359375 4.171874 9.359375 9.355468 0 5.1875-4.171875 9.359375-9.359375 9.359375-5.183594 0-9.355469-4.171875-9.355469-9.359375 0-5.183594 4.171875-9.355468 9.355469-9.355468zm0 0" fill="#212121"/><path d="m11.90625 6.390625c-.273438 0-.496094.21875-.496094.496094 0 .234375.164063.429687.382813.480469-.519531 1.101562-1.410157 3.238281-1.871094 3.238281-.4375 0-1.652344-.777344-2.617187-1.640625.085937-.089844.136718-.210938.136718-.34375 0-.273438-.21875-.496094-.496094-.496094-.273437 0-.496093.222656-.496093.496094v.007812l.042969.191406c.074218.175782.25.296876.453124.296876.035157 0 .070313-.003907.105469-.011719l.976563 4.554687c1.335937.417969 3.328125.417969 3.878906.417969s2.542969 0 3.882812-.417969l.976563-4.554687c.03125.007812.066406.011719.101563.011719.207031 0 .378906-.121094.457031-.296876l.039062-.191406c0-.003906 0-.003906 0-.007812 0-.273438-.21875-.496094-.496093-.496094-.273438 0-.496094.222656-.496094.496094 0 .132812.054687.253906.136718.34375-.960937.863281-2.175781 1.640625-2.617187 1.640625-.460937 0-1.347656-2.136719-1.871094-3.238281.222657-.050782.382813-.246094.382813-.480469 0-.277344-.21875-.496094-.496094-.496094zm-3.734375 7.945313.261719 1.230468c.992187.496094 2.976562.496094 3.472656.496094s2.480469 0 3.472656-.496094l.265625-1.230468c-1.335937.375-3.207031.375-3.738281.375s-2.402344 0-3.734375-.375zm0 0" fill="url(#h)"/><path d="m11.90625 6.390625c-.273438 0-.496094.21875-.496094.496094 0 .042969.007813.082031.015625.121093.054688-.210937.25-.371093.480469-.371093.234375 0 .425781.160156.480469.371093.011719-.039062.015625-.078124.015625-.121093 0-.277344-.21875-.496094-.496094-.496094zm-.210938 1.191406c-.53125 1.140625-1.339843 3.023438-1.773437 3.023438-.421875 0-1.570313-.722657-2.515625-1.550781-.023438.058593-.058594.109374-.101562.15625.964843.867187 2.179687 1.644531 2.617187 1.644531.460937 0 1.351563-2.140625 1.871094-3.238281-.035157-.007813-.066407-.019532-.097657-.035157zm.425782 0c-.03125.015625-.066406.027344-.101563.035157.523438 1.097656 1.410157 3.238281 1.871094 3.238281.441406 0 1.65625-.777344 2.617187-1.644531-.042968-.046876-.078124-.097657-.101562-.15625-.941406.828124-2.089844 1.550781-2.515625 1.550781-.429687 0-1.242187-1.882813-1.769531-3.023438zm-5.175782.542969c-.273437 0-.496093.222656-.496093.496094v.007812l.023437.097656c.058594-.203124.25-.351562.472656-.351562.234376 0 .425782.15625.480469.371094.011719-.039063.015625-.082032.015625-.125 0-.273438-.21875-.496094-.496094-.496094zm9.921876 0c-.273438 0-.496094.222656-.496094.496094 0 .042968.007812.085937.015625.125.054687-.214844.25-.371094.480469-.371094.226562 0 .414062.148438.476562.351562l.019531-.097656c0-.003906 0-.003906 0-.007812 0-.273438-.21875-.496094-.496093-.496094zm-8.695313 6.210938.054687.261718c1.332032.363282 3.15625.363282 3.679688.363282s2.351562 0 3.679688-.363282l.058593-.261718c-1.335937.375-3.207031.375-3.738281.375s-2.402344 0-3.734375-.375zm0 0" fill="#fff"/><path d="m12.367188 7.117188c-.058594.148437-.1875.261718-.347657.296874.046875.097657.097657.203126.148438.3125.140625-.085937.234375-.242187.234375-.421874 0-.066407-.011719-.128907-.035156-.1875zm-.921876 0c-.019531.058593-.035156.121093-.035156.1875 0 .179687.09375.335937.238282.421874.050781-.109374.097656-.214843.144531-.3125-.15625-.035156-.285157-.148437-.347657-.296874zm-4.957031 1.734374c-.023437.058594-.039062.121094-.039062.1875v.007813l.042969.191406c.074218.175781.25.296875.453124.296875.035157 0 .070313-.003906.105469-.007812l.976563 4.550781c1.335937.417969 3.328125.417969 3.878906.417969s2.542969 0 3.882812-.417969l.976563-4.550781c.03125.003906.066406.007812.101563.007812.207031 0 .378906-.121094.457031-.296875l.039062-.191406c0-.003906 0-.003906 0-.007813 0-.066406-.011719-.128906-.035156-.1875l-.003906.015626c-.078125.175781-.25.296874-.457031.296874-.035157 0-.070313-.003906-.101563-.011718l-.976563 4.554687c-1.339843.417969-3.332031.417969-3.882812.417969s-2.542969 0-3.878906-.417969l-.976563-4.554687c-.035156.007812-.070312.011718-.105469.011718-.203124 0-.378906-.121093-.453124-.296874zm.917969.003907c-.023438.058593-.058594.109375-.101562.152343.042968.039063.085937.078126.128906.117188.007812-.027344.007812-.054688.007812-.085938 0-.066406-.011718-.128906-.035156-.183593zm9.003906 0c-.023437.054687-.039062.117187-.039062.183593 0 .03125.003906.058594.007812.085938.042969-.039062.085938-.078125.128906-.117188-.042968-.042968-.074218-.09375-.097656-.152343zm-8.238281 5.898437.261719 1.234375c.992187.496094 2.976562.496094 3.472656.496094s2.480469 0 3.472656-.496094l.265625-1.234375c-.027343.007813-.054687.015625-.085937.023438l-.179688.835937c-.992187.496094-2.976562.496094-3.472656.496094s-2.480469 0-3.472656-.496094l-.179688-.835937c-.027344-.007813-.054687-.015625-.082031-.023438zm0 0" fill-opacity=".235294"/><path d="m959.908384 515.226416c-22.04514 0-39.996183 17.636112-39.996183 39.996183 0 18.895834 13.227084 34.642363 30.863196 38.73646-41.885766 88.810421-113.689936 261.077444-150.851744 261.077444-35.272224 0-133.215632-62.671184-211.003483-132.27084 6.928472-7.243403 11.02257-17.006251 11.02257-27.71389 0-22.04514-17.636112-39.996183-39.996183-39.996183-22.04514 0-39.996182 17.951043-39.996182 39.996183v.629861l3.464236 15.431598c5.983681 14.171876 20.155556 23.934723 36.531946 23.934723 2.834375 0 5.668751-.31493 8.503126-.944791l78.732643 367.209047c107.706255 33.697571 268.320847 33.697571 312.726058 33.697571 44.40521 0 205.019802 0 313.040988-33.697571l78.732643-367.209047c2.519445.629861 5.35382.944791 8.188195.944791 16.691321 0 30.548266-9.762847 36.846877-23.934723l3.149306-15.431598c0-.314931 0-.314931 0-.629861 0-22.04514-17.636112-39.996183-39.996183-39.996183-22.04514 0-39.996182 17.951043-39.996182 39.996183 0 10.707639 4.409028 20.470487 11.02257 27.71389-77.472921 69.599656-175.416329 132.27084-211.003484 132.27084-37.161807 0-108.651047-172.267023-150.851744-261.077444 17.951043-4.094097 30.863196-19.840626 30.863196-38.73646 0-22.360071-17.636112-39.996183-39.996182-39.996183zm-301.073627 640.568784 21.100348 99.20313c79.992366 39.996183 239.977096 39.996183 279.973279 39.996183 39.996182 0 199.980913 0 279.973278-39.996183l21.415279-99.20313c-107.706255 30.233335-258.557999 30.233335-301.388557 30.233335s-193.682302 0-301.073627-30.233335zm0 0" fill="none" stroke="#212121" stroke-width="11.338583" transform="scale(.0124035)"/></svg>

<?xml version="1.0" encoding="UTF-8"?>
<svg xmlns="http://www.w3.org/2000/svg" xmlns:xlink="http://www.w3.org/1999/xlink" width="24px" height="24px" viewBox="0 0 24 24" version="1.1">
<defs>
<radialGradient id="radial0" gradientUnits="userSpaceOnUse" cx="450.908936" cy="189.579361" fx="450.908936" fy="189.579361" r="21.166656" gradientTransform="matrix(0.000000130628,-0.0585994,-0.105479,-0.0000000761539,33.392364,47.696497)">
<stop offset="0" style="stop-color:rgb(0%,0%,0%);stop-opacity:0.313726;"/>
<stop offset="0.222222" style="stop-color:rgb(0%,0%,0%);stop-opacity:0.27451;"/>
<stop offset="1" style="stop-color:rgb(0%,0%,0%);stop-opacity:0;"/>
</radialGradient>
<radialGradient id="radial1" gradientUnits="userSpaceOnUse" cx="450.908936" cy="189.579361" fx="450.908936" fy="189.579361" r="21.166656" gradientTransform="matrix(-0.000000130628,0.0585994,0.105479,0.0000000761539,-9.577589,-5.645612)">
<stop offset="0" style="stop-color:rgb(0%,0%,0%);stop-opacity:0.313726;"/>
<stop offset="0.222222" style="stop-color:rgb(0%,0%,0%);stop-opacity:0.27451;"/>
<stop offset="1" style="stop-color:rgb(0%,0%,0%);stop-opacity:0;"/>
</radialGradient>
<radialGradient id="radial2" gradientUnits="userSpaceOnUse" cx="450.908936" cy="189.579361" fx="450.908936" fy="189.579361" r="21.166656" gradientTransform="matrix(-0.000000130628,-0.0585994,0.105479,-0.0000000761539,-9.577589,47.696497)">
<stop offset="0" style="stop-color:rgb(0%,0%,0%);stop-opacity:0.313726;"/>
<stop offset="0.222222" style="stop-color:rgb(0%,0%,0%);stop-opacity:0.27451;"/>
<stop offset="1" style="stop-color:rgb(0%,0%,0%);stop-opacity:0;"/>
</radialGradient>
<radialGradient id="radial3" gradientUnits="userSpaceOnUse" cx="450.908936" cy="189.579361" fx="450.908936" fy="189.579361" r="21.166656" gradientTransform="matrix(0.000000130628,0.0585994,-0.105479,0.0000000761539,33.392362,-5.645612)">
<stop offset="0" style="stop-color:rgb(0%,0%,0%);stop-opacity:0.313726;"/>
<stop offset="0.222222" style="stop-color:rgb(0%,0%,0%);stop-opacity:0.27451;"/>
<stop offset="1" style="stop-color:rgb(0%,0%,0%);stop-opacity:0;"/>
</radialGradient>
<linearGradient id="linear0" gradientUnits="userSpaceOnUse" x1="255.323059" y1="233.5" x2="255.323044" y2="254.666656" gradientTransform="matrix(0.01002,0,0,0.0468795,9.34904,10.079088)">
<stop offset="0" style="stop-color:rgb(0%,0%,0%);stop-opacity:0.27451;"/>
<stop offset="1" style="stop-color:rgb(0%,0%,0%);stop-opacity:0;"/>
</linearGradient>
<linearGradient id="linear1" gradientUnits="userSpaceOnUse" x1="254" y1="-168.666672" x2="254" y2="233.5" gradientTransform="matrix(0.0468795,0,0,0.0468795,0,10.079087)">
<stop offset="0" style="stop-color:rgb(93.725491%,32.549021%,31.37255%);stop-opacity:1;"/>
<stop offset="1" style="stop-color:rgb(95.686275%,26.274511%,21.176471%);stop-opacity:1;"/>
</linearGradient>
<linearGradient id="linear2" gradientUnits="userSpaceOnUse" x1="960" y1="1695.118164" x2="960" y2="175.118118" gradientTransform="matrix(0.0124035,0,0,0.0124035,0,0.00000000000000141)">
<stop offset="0" style="stop-color:rgb(74.117649%,74.117649%,74.117649%);stop-opacity:1;"/>
<stop offset="1" style="stop-color:rgb(87.843138%,87.843138%,87.843138%);stop-opacity:1;"/>
</linearGradient>
</defs>
<g id="surface1">
<path style=" stroke:none;fill-rule:nonzero;fill:url(#radial0);" d="M 13.644531 21.027344 L 15.628906 21.027344 L 15.628906 20.03125 L 13.644531 20.03125 Z M 13.644531 21.027344 "/>
<path style=" stroke:none;fill-rule:nonzero;fill:url(#radial1);" d="M 10.171875 21.027344 L 8.1875 21.027344 L 8.1875 22.019531 L 10.171875 22.019531 Z M 10.171875 21.027344 "/>
<path style=" stroke:none;fill-rule:nonzero;fill:url(#radial2);" d="M 10.171875 21.027344 L 8.1875 21.027344 L 8.1875 20.03125 L 10.171875 20.03125 Z M 10.171875 21.027344 "/>
<path style=" stroke:none;fill-rule:nonzero;fill:url(#radial3);" d="M 13.644531 21.027344 L 15.628906 21.027344 L 15.628906 22.019531 L 13.644531 22.019531 Z M 13.644531 21.027344 "/>
<path style=" stroke:none;fill-rule:nonzero;fill:url(#linear0);" d="M 10.171875 20.777344 L 13.644531 20.777344 L 13.644531 22.019531 L 10.171875 22.019531 Z M 10.171875 20.777344 "/>
<path style=" stroke:none;fill-rule:nonzero;fill:url(#linear1);" d="M 11.90625 2.171875 C 17.113281 2.171875 21.335938 6.390625 21.335938 11.597656 C 21.335938 16.804688 17.113281 21.027344 11.90625 21.027344 C 6.703125 21.027344 2.480469 16.804688 2.480469 11.597656 C 2.480469 6.390625 6.703125 2.171875 11.90625 2.171875 Z M 11.90625 2.171875 "/>
<path style=" stroke:none;fill-rule:nonzero;fill:rgb(0%,0%,0%);fill-opacity:0.196078;" d="M 11.90625 21.027344 C 6.683594 21.027344 2.480469 16.820312 2.480469 11.597656 C 2.480469 11.566406 2.480469 11.539062 2.480469 11.507812 C 2.53125 16.6875 6.714844 20.839844 11.90625 20.839844 C 17.097656 20.839844 21.285156 16.6875 21.332031 11.507812 C 21.332031 11.539062 21.335938 11.566406 21.335938 11.597656 C 21.335938 16.820312 17.128906 21.027344 11.90625 21.027344 Z M 11.90625 21.027344 "/>
<path style=" stroke:none;fill-rule:nonzero;fill:rgb(100%,100%,100%);fill-opacity:0.392157;" d="M 11.90625 2.171875 C 6.683594 2.171875 2.480469 6.375 2.480469 11.597656 C 2.480469 11.628906 2.480469 11.660156 2.480469 11.691406 C 2.53125 6.511719 6.714844 2.355469 11.90625 2.355469 C 17.097656 2.355469 21.285156 6.511719 21.332031 11.691406 C 21.332031 11.660156 21.335938 11.628906 21.335938 11.597656 C 21.335938 6.375 17.128906 2.171875 11.90625 2.171875 Z M 11.90625 2.171875 "/>
<path style=" stroke:none;fill-rule:nonzero;fill:rgb(12.941177%,12.941177%,12.941177%);fill-opacity:1;" d="M 11.90625 2.101562 C 6.648438 2.101562 2.410156 6.339844 2.410156 11.597656 C 2.410156 16.859375 6.648438 21.097656 11.90625 21.097656 C 17.167969 21.097656 21.40625 16.859375 21.40625 11.597656 C 21.40625 6.339844 17.167969 2.101562 11.90625 2.101562 Z M 11.90625 2.242188 C 17.09375 2.242188 21.265625 6.414062 21.265625 11.597656 C 21.265625 16.785156 17.09375 20.957031 11.90625 20.957031 C 6.722656 20.957031 2.550781 16.785156 2.550781 11.597656 C 2.550781 6.414062 6.722656 2.242188 11.90625 2.242188 Z M 11.90625 2.242188 "/>
<path style=" stroke:none;fill-rule:nonzero;fill:url(#linear2);" d="M 11.90625 6.390625 C 11.632812 6.390625 11.410156 6.609375 11.410156 6.886719 C 11.410156 7.121094 11.574219 7.316406 11.792969 7.367188 C 11.273438 8.46875 10.382812 10.605469 9.921875 10.605469 C 9.484375 10.605469 8.269531 9.828125 7.304688 8.964844 C 7.390625 8.875 7.441406 8.753906 7.441406 8.621094 C 7.441406 8.347656 7.222656 8.125 6.945312 8.125 C 6.671875 8.125 6.449219 8.347656 6.449219 8.621094 C 6.449219 8.625 6.449219 8.625 6.449219 8.628906 L 6.492188 8.820312 C 6.566406 8.996094 6.742188 9.117188 6.945312 9.117188 C 6.980469 9.117188 7.015625 9.113281 7.050781 9.105469 L 8.027344 13.660156 C 9.363281 14.078125 11.355469 14.078125 11.90625 14.078125 C 12.457031 14.078125 14.449219 14.078125 15.789062 13.660156 L 16.765625 9.105469 C 16.796875 9.113281 16.832031 9.117188 16.867188 9.117188 C 17.074219 9.117188 17.246094 8.996094 17.324219 8.820312 L 17.363281 8.628906 C 17.363281 8.625 17.363281 8.625 17.363281 8.621094 C 17.363281 8.347656 17.144531 8.125 16.867188 8.125 C 16.59375 8.125 16.371094 8.347656 16.371094 8.621094 C 16.371094 8.753906 16.425781 8.875 16.507812 8.964844 C 15.546875 9.828125 14.332031 10.605469 13.890625 10.605469 C 13.429688 10.605469 12.542969 8.46875 12.019531 7.367188 C 12.242188 7.316406 12.402344 7.121094 12.402344 6.886719 C 12.402344 6.609375 12.183594 6.390625 11.90625 6.390625 Z M 8.171875 14.335938 L 8.433594 15.566406 C 9.425781 16.0625 11.410156 16.0625 11.90625 16.0625 C 12.402344 16.0625 14.386719 16.0625 15.378906 15.566406 L 15.644531 14.335938 C 14.308594 14.710938 12.4375 14.710938 11.90625 14.710938 C 11.375 14.710938 9.503906 14.710938 8.171875 14.335938 Z M 8.171875 14.335938 "/>
<path style=" stroke:none;fill-rule:nonzero;fill:rgb(100%,100%,100%);fill-opacity:1;" d="M 11.90625 6.390625 C 11.632812 6.390625 11.410156 6.609375 11.410156 6.886719 C 11.410156 6.929688 11.417969 6.96875 11.425781 7.007812 C 11.480469 6.796875 11.675781 6.636719 11.90625 6.636719 C 12.140625 6.636719 12.332031 6.796875 12.386719 7.007812 C 12.398438 6.96875 12.402344 6.929688 12.402344 6.886719 C 12.402344 6.609375 12.183594 6.390625 11.90625 6.390625 Z M 11.695312 7.582031 C 11.164062 8.722656 10.355469 10.605469 9.921875 10.605469 C 9.5 10.605469 8.351562 9.882812 7.40625 9.054688 C 7.382812 9.113281 7.347656 9.164062 7.304688 9.210938 C 8.269531 10.078125 9.484375 10.855469 9.921875 10.855469 C 10.382812 10.855469 11.273438 8.714844 11.792969 7.617188 C 11.757812 7.609375 11.726562 7.597656 11.695312 7.582031 Z M 12.121094 7.582031 C 12.089844 7.597656 12.054688 7.609375 12.019531 7.617188 C 12.542969 8.714844 13.429688 10.855469 13.890625 10.855469 C 14.332031 10.855469 15.546875 10.078125 16.507812 9.210938 C 16.464844 9.164062 16.429688 9.113281 16.40625 9.054688 C 15.464844 9.882812 14.316406 10.605469 13.890625 10.605469 C 13.460938 10.605469 12.648438 8.722656 12.121094 7.582031 Z M 6.945312 8.125 C 6.671875 8.125 6.449219 8.347656 6.449219 8.621094 C 6.449219 8.625 6.449219 8.625 6.449219 8.628906 L 6.472656 8.726562 C 6.53125 8.523438 6.722656 8.375 6.945312 8.375 C 7.179688 8.375 7.371094 8.53125 7.425781 8.746094 C 7.4375 8.707031 7.441406 8.664062 7.441406 8.621094 C 7.441406 8.347656 7.222656 8.125 6.945312 8.125 Z M 16.867188 8.125 C 16.59375 8.125 16.371094 8.347656 16.371094 8.621094 C 16.371094 8.664062 16.378906 8.707031 16.386719 8.746094 C 16.441406 8.53125 16.636719 8.375 16.867188 8.375 C 17.09375 8.375 17.28125 8.523438 17.34375 8.726562 L 17.363281 8.628906 C 17.363281 8.625 17.363281 8.625 17.363281 8.621094 C 17.363281 8.347656 17.144531 8.125 16.867188 8.125 Z M 8.171875 14.335938 L 8.226562 14.597656 C 9.558594 14.960938 11.382812 14.960938 11.90625 14.960938 C 12.429688 14.960938 14.257812 14.960938 15.585938 14.597656 L 15.644531 14.335938 C 14.308594 14.710938 12.4375 14.710938 11.90625 14.710938 C 11.375 14.710938 9.503906 14.710938 8.171875 14.335938 Z M 8.171875 14.335938 "/>
<path style=" stroke:none;fill-rule:nonzero;fill:rgb(0%,0%,0%);fill-opacity:0.235294;" d="M 12.367188 7.117188 C 12.308594 7.265625 12.179688 7.378906 12.019531 7.414062 C 12.066406 7.511719 12.117188 7.617188 12.167969 7.726562 C 12.308594 7.640625 12.402344 7.484375 12.402344 7.304688 C 12.402344 7.238281 12.390625 7.175781 12.367188 7.117188 Z M 11.445312 7.117188 C 11.425781 7.175781 11.410156 7.238281 11.410156 7.304688 C 11.410156 7.484375 11.503906 7.640625 11.648438 7.726562 C 11.699219 7.617188 11.746094 7.511719 11.792969 7.414062 C 11.636719 7.378906 11.507812 7.265625 11.445312 7.117188 Z M 6.488281 8.851562 C 6.464844 8.910156 6.449219 8.972656 6.449219 9.039062 C 6.449219 9.042969 6.449219 9.042969 6.449219 9.046875 L 6.492188 9.238281 C 6.566406 9.414062 6.742188 9.535156 6.945312 9.535156 C 6.980469 9.535156 7.015625 9.53125 7.050781 9.527344 L 8.027344 14.078125 C 9.363281 14.496094 11.355469 14.496094 11.90625 14.496094 C 12.457031 14.496094 14.449219 14.496094 15.789062 14.078125 L 16.765625 9.527344 C 16.796875 9.53125 16.832031 9.535156 16.867188 9.535156 C 17.074219 9.535156 17.246094 9.414062 17.324219 9.238281 L 17.363281 9.046875 C 17.363281 9.042969 17.363281 9.042969 17.363281 9.039062 C 17.363281 8.972656 17.351562 8.910156 17.328125 8.851562 L 17.324219 8.867188 C 17.246094 9.042969 17.074219 9.164062 16.867188 9.164062 C 16.832031 9.164062 16.796875 9.160156 16.765625 9.152344 L 15.789062 13.707031 C 14.449219 14.125 12.457031 14.125 11.90625 14.125 C 11.355469 14.125 9.363281 14.125 8.027344 13.707031 L 7.050781 9.152344 C 7.015625 9.160156 6.980469 9.164062 6.945312 9.164062 C 6.742188 9.164062 6.566406 9.042969 6.492188 8.867188 Z M 7.40625 8.855469 C 7.382812 8.914062 7.347656 8.964844 7.304688 9.007812 C 7.347656 9.046875 7.390625 9.085938 7.433594 9.125 C 7.441406 9.097656 7.441406 9.070312 7.441406 9.039062 C 7.441406 8.972656 7.429688 8.910156 7.40625 8.855469 Z M 16.410156 8.855469 C 16.386719 8.910156 16.371094 8.972656 16.371094 9.039062 C 16.371094 9.070312 16.375 9.097656 16.378906 9.125 C 16.421875 9.085938 16.464844 9.046875 16.507812 9.007812 C 16.464844 8.964844 16.433594 8.914062 16.410156 8.855469 Z M 8.171875 14.753906 L 8.433594 15.988281 C 9.425781 16.484375 11.410156 16.484375 11.90625 16.484375 C 12.402344 16.484375 14.386719 16.484375 15.378906 15.988281 L 15.644531 14.753906 C 15.617188 14.761719 15.589844 14.769531 15.558594 14.777344 L 15.378906 15.613281 C 14.386719 16.109375 12.402344 16.109375 11.90625 16.109375 C 11.410156 16.109375 9.425781 16.109375 8.433594 15.613281 L 8.253906 14.777344 C 8.226562 14.769531 8.199219 14.761719 8.171875 14.753906 Z M 8.171875 14.753906 "/>
<path style="fill:none;stroke-width:11.338583;stroke-linecap:butt;stroke-linejoin:miter;stroke:rgb(12.941177%,12.941177%,12.941177%);stroke-opacity:1;stroke-miterlimit:4;" d="M 959.908384 515.226416 C 937.863244 515.226416 919.912201 532.862528 919.912201 555.222599 C 919.912201 574.118433 933.139285 589.864962 950.775397 593.959059 C 908.889631 682.76948 837.085461 855.036503 799.923653 855.036503 C 764.651429 855.036503 666.708021 792.365319 588.92017 722.765663 C 595.848642 715.52226 599.94274 705.759412 599.94274 695.051773 C 599.94274 673.006633 582.306628 655.05559 559.946557 655.05559 C 537.901417 655.05559 519.950375 673.006633 519.950375 695.051773 C 519.950375 695.366703 519.950375 695.366703 519.950375 695.681634 L 523.414611 711.113232 C 529.398292 725.285108 543.570167 735.047955 559.946557 735.047955 C 562.780932 735.047955 565.615308 734.733025 568.449683 734.103164 L 647.182326 1101.312211 C 754.888581 1135.009782 915.503173 1135.009782 959.908384 1135.009782 C 1004.313594 1135.009782 1164.928186 1135.009782 1272.949372 1101.312211 L 1351.682015 734.103164 C 1354.20146 734.733025 1357.035835 735.047955 1359.87021 735.047955 C 1376.561531 735.047955 1390.418476 725.285108 1396.717087 711.113232 L 1399.866393 695.681634 C 1399.866393 695.366703 1399.866393 695.366703 1399.866393 695.051773 C 1399.866393 673.006633 1382.230281 655.05559 1359.87021 655.05559 C 1337.82507 655.05559 1319.874028 673.006633 1319.874028 695.051773 C 1319.874028 705.759412 1324.283056 715.52226 1330.896598 722.765663 C 1253.423677 792.365319 1155.480269 855.036503 1119.893114 855.036503 C 1082.731307 855.036503 1011.242067 682.76948 969.04137 593.959059 C 986.992413 589.864962 999.904566 574.118433 999.904566 555.222599 C 999.904566 532.862528 982.268454 515.226416 959.908384 515.226416 Z M 658.834757 1155.7952 L 679.935105 1254.99833 C 759.927471 1294.994513 919.912201 1294.994513 959.908384 1294.994513 C 999.904566 1294.994513 1159.889297 1294.994513 1239.881662 1254.99833 L 1261.296941 1155.7952 C 1153.590686 1186.028535 1002.738942 1186.028535 959.908384 1186.028535 C 917.077826 1186.028535 766.226082 1186.028535 658.834757 1155.7952 Z M 658.834757 1155.7952 " transform="matrix(0.0124035,0,0,0.0124035,0,0)"/>
</g>
</svg>
